svgs/sharp-thin/play-pause.svg

<svg xmlns="http://www.w3.org/2000/svg" viewBox="0 0 640 512"><!--! Font Awesome Pro 6.6.0 by @fontawesome - https://fontawesome.com License - https://fontawesome.com/license (Commercial License) Copyright 2024 Fonticons, Inc. --><path d="M64 448l0-20L64 84l0-20L80 76 306.7 246 320 256l-13.3 10L80 436 64 448zM293.3 256L80 96l0 320L293.3 256zM432 72l0 368 0 8-16 0 0-8 0-368 0-8 16 0 0 8zm144 0l0 368 0 8-16 0 0-8 0-368 0-8 16 0 0 8z"/></svg>

<svg xmlns="http://www.w3.org/2000/svg" viewBox="0 0 640 512"><!--! Font Awesome Pro 6.5.2 by @fontawesome - https://fontawesome.com License - https://fontawesome.com/license (Commercial License) Copyright 2024 Fonticons, Inc. --><path d="M64 448V428 84 64L80 76 306.7 246 320 256l-13.3 10L80 436 64 448zM293.3 256L80 96V416L293.3 256zM432 72V440v8H416v-8V72 64h16v8zm144 0V440v8H560v-8V72 64h16v8z"/></svg>
